icons/svg/3d-object_20.svg

<?xml version="1.0" encoding="UTF-8"?>
<svg width="20px" height="20px" viewBox="0 0 20 20" version="1.1" xmlns="http://www.w3.org/2000/svg" xmlns:xlink="http://www.w3.org/1999/xlink">
    <!-- Generator: Sketch 59.1 (86144) - https://sketch.com -->
    <title>3d-object_20</title>
    <desc>Created with Sketch.</desc>
    <g id="New-Icon" stroke="none" stroke-width="1" fill="none" fill-rule="evenodd">
        <g id="3d-object_20" fill="#171B1F">
            <path d="M10.5,17.7678 L10.5,8.1238 L18,5.1898 L18,14.8328 L10.5,17.7678 Z M2,5.5298 L2.996,5.8758 L9.5,8.1388 L9.5,17.7678 L2,14.8328 L2,5.5298 Z M10.01,2.0328 L17.057,4.4838 L9.989,7.2498 L8.431,6.7078 L2.942,4.7988 L10.01,2.0328 Z M19,4.4468 C19,4.4368 18.992,4.4298 18.991,4.4198 C18.984,4.3368 18.958,4.2608 18.915,4.1918 C18.898,4.1668 18.877,4.1498 18.856,4.1278 C18.831,4.0998 18.813,4.0658 18.782,4.0438 C18.759,4.0278 18.731,4.0268 18.706,4.0158 C18.69,4.0078 18.681,3.9908 18.664,3.9848 L10.164,1.0278 C10.051,0.9878 9.929,0.9918 9.818,1.0348 L1.318,4.3608 C1.302,4.3668 1.295,4.3828 1.28,4.3908 C1.258,4.4018 1.231,4.4038 1.21,4.4188 C1.175,4.4438 1.156,4.4808 1.128,4.5128 C1.111,4.5338 1.092,4.5488 1.078,4.5718 C1.031,4.6488 1,4.7338 1,4.8268 L1,15.1738 C1,15.3798 1.126,15.5648 1.318,15.6398 L9.818,18.9658 C9.876,18.9888 9.938,18.9998 10,18.9998 C10.062,18.9998 10.124,18.9888 10.182,18.9658 L18.682,15.6398 C18.874,15.5648 19,15.3798 19,15.1738 L19,4.4568 C19,4.4548 18.999,4.4538 18.999,4.4518 C18.999,4.4498 19,4.4488 19,4.4468 L19,4.4468 Z" id="fill"></path>
        </g>
    </g>
</svg>

<svg width="20" height="20" xmlns="http://www.w3.org/2000/svg"><path d="M10.5 17.768V8.124L18 5.19v9.643l-7.5 2.935zM2 5.53l.996.346L9.5 8.139v9.629L2 14.833V5.53zm8.01-3.497l7.047 2.45L9.989 7.25l-1.558-.542-5.489-1.91 7.068-2.765zM19 4.447c0-.01-.008-.017-.009-.027a.506.506 0 00-.076-.228c-.017-.025-.038-.042-.059-.064-.025-.028-.043-.062-.074-.084-.023-.016-.051-.017-.076-.028-.016-.008-.025-.025-.042-.031l-8.5-2.957a.496.496 0 00-.346.007l-8.5 3.326c-.016.006-.023.022-.038.03-.022.01-.049.013-.07.028-.035.025-.054.062-.082.094-.017.02-.036.036-.05.059A.487.487 0 001 4.827v10.347a.5.5 0 00.318.466l8.5 3.326a.494.494 0 00.364 0l8.5-3.326a.5.5 0 00.318-.466V4.457l-.001-.005.001-.005z" fill="#171B1F" fill-rule="evenodd"/></svg>
